X:0309
T:Bonny Charlie.
M:C
L:1/8
Q:1/2=104
I: :: ::
Z:Jack Campin * www.campin.me.uk * 2009
K:E Minor
E2EF G2GA|BcBA G2GA|B2E2 E2G2|FGAF  D4  |
E2EF G2GA|BcBA G2GA|B2E2 GFED|E4    e4 :|
efed B2B2|efed B4  |fgaf d2g2|fgaf  d2ga|
b2gb a2fa|g2eg f2df|e2ef gfed|e2ef Hg4  |
efed B2B2|g2ab B4  |dcBA cBAG|FGAF  D4  |
GFGA BABd|edef gfed|dcBA BAGF|E4    e4 :|

